img/icon-2.svg

<svg width="70" height="70" viewBox="0 0 70 70" fill="none" xmlns="http://www.w3.org/2000/svg">
<path d="M24.1111 27.2778H16.3333C15.6893 27.2778 15.1667 26.7551 15.1667 26.1111C15.1667 25.4671 15.6893 24.9444 16.3333 24.9444H24.1111C24.7551 24.9444 25.2778 25.4671 25.2778 26.1111C25.2778 26.7551 24.7551 27.2778 24.1111 27.2778Z" fill="#0C8543"/>
<path d="M45.8889 27.2778H53.6667C54.3107 27.2778 54.8333 26.7551 54.8333 26.1111C54.8333 25.4671 54.3107 24.9444 53.6667 24.9444H45.8889C45.2449 24.9444 44.7222 25.4671 44.7222 26.1111C44.7222 26.7551 45.2449 27.2778 45.8889 27.2778Z" fill="#0C8543"/>
<path d="M38.8889 27.2778H31.1111C30.4671 27.2778 29.9444 26.7551 29.9444 26.1111C29.9444 25.4671 30.4671 24.9444 31.1111 24.9444H38.8889C39.5329 24.9444 40.0556 25.4671 40.0556 26.1111C40.0556 26.7551 39.5329 27.2778 38.8889 27.2778Z" fill="#0C8543"/>
<path fill-rule="evenodd" clip-rule="evenodd" d="M3.11111 9H66.8889C68.6 9 70 10.4 70 12.1111V17.5556C70 19.2667 68.6 20.6667 66.8889 20.6667H66.1111V58C66.1111 59.7111 64.7111 61.1111 63 61.1111H7C5.28889 61.1111 3.88889 59.7111 3.88889 58V20.6667H3.11111C1.4 20.6667 0 19.2667 0 17.5556V12.1111C0 10.4 1.4 9 3.11111 9ZM47.8333 39.7222V35.8333H22.1667V39.7222H47.8333ZM47.8333 42.0556H22.1667V45.9444H47.8333V42.0556ZM47.8333 48.2778H22.1667V57.2222H47.8333V48.2778ZM61.1839 45.9211L62.2222 46.9594V20.6667H7.77778V57.2222H19.8333V35.8333H16.3333C15.6893 35.8333 15.1667 35.3107 15.1667 34.6667C15.1667 34.0227 15.6893 33.5 16.3333 33.5H53.6667C54.3107 33.5 54.8333 34.0227 54.8333 34.6667C54.8333 35.3107 54.3107 35.8333 53.6667 35.8333H50.1667V40.8811L50.1674 40.8889L50.1667 40.8967V57.223H54.6366L53.4606 56.0462C53.2327 55.8183 53.2327 55.4481 53.4606 55.221C53.6884 54.9931 54.0579 54.9931 54.2858 55.221L56.2862 57.2222H60.0367L56.1773 53.3621C55.9494 53.1342 55.9494 52.7648 56.1773 52.5369C56.4052 52.309 56.7747 52.309 57.0026 52.5369L61.6871 57.2222H62.2222V54.0077L57.5089 49.2959C57.281 49.068 57.281 48.6986 57.5089 48.4707C57.7368 48.2428 58.1062 48.2428 58.3341 48.4707L62.2222 52.358V48.6091L60.3587 46.7463C60.1308 46.5184 60.1308 46.149 60.3587 45.9211C60.5866 45.6932 60.956 45.6932 61.1839 45.9211ZM3.88889 16.7778H66.1111V12.8889H3.88889V16.7778Z" fill="#0C8543"/>
</svg>

<svg width="70" height="70" fill="none" xmlns="http://www.w3.org/2000/svg"><path d="M24.111 27.278h-7.778a1.167 1.167 0 0 1 0-2.334h7.778a1.167 1.167 0 0 1 0 2.334ZM45.889 27.278h7.778a1.167 1.167 0 0 0 0-2.334h-7.778a1.167 1.167 0 0 0 0 2.334ZM38.889 27.278H31.11a1.167 1.167 0 0 1 0-2.334h7.778a1.167 1.167 0 0 1 0 2.334Z" fill="#0C8543"/><path fill-rule="evenodd" clip-rule="evenodd" d="M3.111 9H66.89A3.12 3.12 0 0 1 70 12.111v5.445a3.12 3.12 0 0 1-3.111 3.11h-.778V58A3.12 3.12 0 0 1 63 61.111H7A3.12 3.12 0 0 1 3.889 58V20.667H3.11A3.12 3.12 0 0 1 0 17.556V12.11A3.12 3.12 0 0 1 3.111 9Zm44.722 30.722v-3.889H22.167v3.89h25.666Zm0 2.334H22.167v3.888h25.666v-3.888Zm0 6.222H22.167v8.944h25.666v-8.944Zm13.35-2.357 1.04 1.038V20.667H7.777v36.555h12.055V35.833h-3.5a1.167 1.167 0 0 1 0-2.333h37.334a1.167 1.167 0 0 1 0 2.333h-3.5v21.39h4.47l-1.176-1.177a.583.583 0 1 1 .825-.825l2 2.001h3.75l-3.859-3.86a.583.583 0 1 1 .826-.825l4.684 4.685h.535v-3.214l-4.713-4.712a.583.583 0 1 1 .825-.825l3.888 3.887v-3.749l-1.863-1.863a.583.583 0 1 1 .825-.825ZM3.89 16.778H66.11v-3.89H3.89v3.89Z" fill="#0C8543"/></svg>
